material/.icons/material/weather-snowy-heavy.svg

<svg xmlns="http://www.w3.org/2000/svg" viewBox="0 0 24 24"><path d="M4 16.36c-.14-.54.18-1.11.73-1.25L7 14.5l-1.67-1.64c-.4-.4-.4-1.05 0-1.46.4-.4 1.07-.4 1.46 0l1.66 1.65.59-2.25c.14-.56.71-.88 1.25-.73.56.14.88.71.71 1.26l-.58 2.25 2.25-.58a.99.99 0 011.26.71c.15.54-.17 1.11-.73 1.25l-2.25.59 1.65 1.66c.4.39.4 1.06 0 1.46-.4.4-1.06.4-1.45 0L9.5 17l-.61 2.27c-.14.56-.71.87-1.25.73-.56-.14-.87-.71-.73-1.26l.59-2.24-2.24.59c-.55.14-1.12-.17-1.26-.73M1 10a5 5 0 015-5c1-2.35 3.3-4 6-4 3.43 0 6.24 2.66 6.5 6.03L19 7a4 4 0 014 4 4 4 0 01-4 4 1 1 0 01-1-1 1 1 0 011-1 2 2 0 002-2 2 2 0 00-2-2h-2V8a5 5 0 00-5-5C9.5 3 7.45 4.82 7.06 7.19 6.73 7.07 6.37 7 6 7a3 3 0 00-3 3c0 .85.35 1.61.91 2.16.36.39.35 1-.03 1.38a.996.996 0 01-1.41 0A4.988 4.988 0 011 10m13.03 10.43c.1.39.47.61.88.51l1.59-.44-.44 1.59c-.1.41.12.78.51.88.38.11.78-.12.88-.51l.41-1.57 1.17 1.16c.27.28.74.28 1.02 0s.28-.75 0-1.02l-1.16-1.17 1.57-.41c.39-.1.62-.5.51-.88-.1-.39-.47-.61-.88-.51l-1.59.44.44-1.59c.1-.41-.12-.78-.51-.88a.71.71 0 00-.88.51l-.41 1.57-1.17-1.16a.724.724 0 00-1.02 0c-.28.29-.28.75 0 1.02l1.16 1.17-1.57.41c-.39.1-.62.5-.51.88z"/></svg>

<?xml version="1.0" encoding="UTF-8"?><!DOCTYPE svg PUBLIC "-//W3C//DTD SVG 1.1//EN" "http://www.w3.org/Graphics/SVG/1.1/DTD/svg11.dtd"><svg xmlns="http://www.w3.org/2000/svg" xmlns:xlink="http://www.w3.org/1999/xlink" version="1.1" id="mdi-weather-snowy-heavy" width="24" height="24" viewBox="0 0 24 24"><path d="M4,16.36C3.86,15.82 4.18,15.25 4.73,15.11L7,14.5L5.33,12.86C4.93,12.46 4.93,11.81 5.33,11.4C5.73,11 6.4,11 6.79,11.4L8.45,13.05L9.04,10.8C9.18,10.24 9.75,9.92 10.29,10.07C10.85,10.21 11.17,10.78 11,11.33L10.42,13.58L12.67,13C13.22,12.83 13.79,13.15 13.93,13.71C14.08,14.25 13.76,14.82 13.2,14.96L10.95,15.55L12.6,17.21C13,17.6 13,18.27 12.6,18.67C12.2,19.07 11.54,19.07 11.15,18.67L9.5,17L8.89,19.27C8.75,19.83 8.18,20.14 7.64,20C7.08,19.86 6.77,19.29 6.91,18.74L7.5,16.5L5.26,17.09C4.71,17.23 4.14,16.92 4,16.36M1,10A5,5 0 0,1 6,5C7,2.65 9.3,1 12,1C15.43,1 18.24,3.66 18.5,7.03L19,7A4,4 0 0,1 23,11A4,4 0 0,1 19,15A1,1 0 0,1 18,14A1,1 0 0,1 19,13A2,2 0 0,0 21,11A2,2 0 0,0 19,9H17V8A5,5 0 0,0 12,3C9.5,3 7.45,4.82 7.06,7.19C6.73,7.07 6.37,7 6,7A3,3 0 0,0 3,10C3,10.85 3.35,11.61 3.91,12.16C4.27,12.55 4.26,13.16 3.88,13.54C3.5,13.93 2.85,13.93 2.47,13.54C1.56,12.63 1,11.38 1,10M14.03,20.43C14.13,20.82 14.5,21.04 14.91,20.94L16.5,20.5L16.06,22.09C15.96,22.5 16.18,22.87 16.57,22.97C16.95,23.08 17.35,22.85 17.45,22.46L17.86,20.89L19.03,22.05C19.3,22.33 19.77,22.33 20.05,22.05C20.33,21.77 20.33,21.3 20.05,21.03L18.89,19.86L20.46,19.45C20.85,19.35 21.08,18.95 20.97,18.57C20.87,18.18 20.5,17.96 20.09,18.06L18.5,18.5L18.94,16.91C19.04,16.5 18.82,16.13 18.43,16.03C18.05,15.92 17.65,16.15 17.55,16.54L17.14,18.11L15.97,16.95C15.7,16.67 15.23,16.67 14.95,16.95C14.67,17.24 14.67,17.7 14.95,17.97L16.11,19.14L14.54,19.55C14.15,19.65 13.92,20.05 14.03,20.43Z" /></svg>
